X:1
T:Title
%%score 1 2
L:1/8
Q:1/4=95
M:6/8
K:F
V:1 treble nm="Grand Piano, Soprano"
V:2 bass nm="Choir Pad, Save One, E. Hewitt, 1892"
V:1
 [FA][FA][FA] [FA][CG][CF] | [FA][Ac][Gc] [Fc]3 | [FA]3 .[CF]3 | [EG]3 .[CF]3 | %4
w: By~William~James~Kirkpatrick * * * * *||||
 [FA][FA][FA] [FA][CG][CF] | [FA][Ac][Gc] [Fc]3 | [FA]3 .[CF]3 | [EG]3 .[CF]3 | %8
w: ||||
 [EG][EG][EG] [EG][CF][EG] | [FA][FA][FA] [Ac]3 | [FA][FA][FA] [FA][CG][CF] | [FA][Ac]>[FA] [EG]3 | %12
w: ||||
 [FA][FA][FA] [FA][EG][_EF] | [DF][DB][DB] [Fd]3 | [Fc]3 .[FA]3 | [EG]3 [CF]3- | [CF]6 |] %17
w: |||||
V:2
 [F,C][F,C][F,C] [F,C][F,B,][F,A,] | [F,C][F,C][F,B,] [F,A,]3 | [F,C]3 .[F,A,]3 | %3
 [C,B,]3 .[F,A,]3 | [F,C][F,C][F,C] [F,C][F,B,][F,A,] | [F,C][F,C][F,B,] [F,A,]3 | %6
 [F,C]3 .[F,A,]3 | [C,B,]3 .[F,A,]3 | [C,C][C,C][C,C] [C,C][C,A,][C,C] | [F,C][F,C][F,C] [F,F]3 | %10
 [F,C][F,C][F,C] [F,C][F,B,][F,A,] | [F,C][F,C]>[F,C] [C,C]3 | [F,C][F,C][F,C] [F,C][F,B,][F,A,] | %13
 [B,,B,][B,,B,][B,,B,] [B,,B,]3 | [C,A,]3 .[C,C]3 | [C,B,]3 [F,A,]3- | [F,A,]6 |] %17

